;FLAVOR:Marlin
;TIME:3765
;Filament used: 3.34468m
;Layer height: 0.2
;MINX:104.557
;MINY:83.125
;MINZ:0.2
;MAXX:173.402
;MAXY:140.105
;MAXZ:24.8
;Generated with Cura_SteamEngine 5.0.0
M82 ;absolute extrusion mode
G21 ; set units to millimeters
G90 ; use absolute positioning
M82 ; absolute extrusion mode
M104 S200 ; set extruder temp
M140 S60 ; set bed temp
M190 S60 ; wait for bed temp
M109 S200 ; wait for extruder temp
G28 W ; home all without mesh bed level
G80 ; mesh bed leveling
G92 E0.0 ; reset extruder distance position
G1 Y-3.0 F1000.0 ; go outside print area
G1 X60.0 E9.0 F1000.0 ; intro line
G1 X100.0 E21.5 F1000.0 ; intro line
G92 E0.0 ; reset extruder distance position
G92 E0
G92 E0
G1 F2100 E-0.8
;LAYER_COUNT:124
;LAYER:0
M107
G0 F3600 X105.219 Y85.576 Z0.2
G0 X104.557 Y88.271
;TYPE:SKIRT
G1 F2100 E0
G1 F1800 X104.567 Y87.589 E0.02269
G1 X104.615 Y87.055 E0.04052
G1 X104.742 Y86.534 E0.05835
G1 X104.944 Y86.037 E0.0762
G1 X105.219 Y85.576 E0.09405
G1 X105.558 Y85.161 E0.11187
G1 X105.956 Y84.801 E0.12972
G1 X106.402 Y84.504 E0.14755
G1 X106.888 Y84.277 E0.16539
G1 X107.402 Y84.124 E0.18322
G1 X108.092 Y84.043 E0.20633
G1 X111.418 Y83.974 E0.31698
G1 X114.185 Y83.835 E0.40912
G1 X116.874 Y83.626 E0.49883
G1 X120.026 Y83.283 E0.60429
G1 X120.897 Y83.174 E0.63348
G1 X121.276 Y83.147 E0.64612
G1 X122.486 Y83.125 E0.68637
G1 X124.052 Y83.135 E0.73846
G1 X124.974 Y83.207 E0.76922
G1 X125.469 Y83.294 E0.78593
G1 X127.965 Y83.778 E0.8705
G1 X130.642 Y84.217 E0.96072
G1 X133.328 Y84.581 E1.05088
G1 X136.073 Y84.874 E1.14269
G1 X138.763 Y85.085 E1.23244
G1 X141.525 Y85.223 E1.32442
G1 X144.218 Y85.28 E1.41401
G1 X146.95 Y85.261 E1.50488
G1 X149.678 Y85.166 E1.59566
G1 X152.403 Y84.993 E1.68648
G1 X155.129 Y84.742 E1.77753
G1 X157.831 Y84.417 E1.86805
G1 X160.504 Y84.018 E1.95794
G1 X163.232 Y83.531 E2.05011
G1 X164.748 Y83.226 E2.10154
G1 X165.327 Y83.153 E2.12095
G1 X166.445 Y83.126 E2.15814
G1 X167.601 Y83.125 E2.19659
G1 X168.437 Y83.139 E2.2244
G1 X168.971 Y83.187 E2.24223
G1 X169.8 Y83.382 E2.27056
G1 X170.309 Y83.549 E2.28838
G1 X170.776 Y83.783 E2.30575
G1 X171.482 Y84.259 E2.33407
G1 X172.062 Y84.799 E2.36043
G1 X172.448 Y85.297 E2.38138
G1 X172.764 Y85.802 E2.4012
G1 X173.113 Y86.568 E2.42919
G1 X173.297 Y87.301 E2.45433
G1 X173.38 Y88.007 E2.47797
G1 X173.402 Y89.189 E2.51729
G1 X173.392 Y90.753 E2.56931
G1 X173.32 Y91.679 E2.60021
G1 X173.233 Y92.172 E2.61686
G1 X172.757 Y94.625 E2.69997
G1 X172.317 Y97.3 E2.79013
G1 X171.952 Y99.986 E2.88029
G1 X171.658 Y102.728 E2.97201
G1 X171.446 Y105.425 E3.06199
G1 X171.308 Y108.18 E3.15374
G1 X171.249 Y110.879 E3.24353
G1 X171.267 Y113.609 E3.33433
G1 X171.361 Y116.335 E3.42505
G1 X171.535 Y119.07 E3.5162
G1 X171.782 Y121.777 E3.60661
G1 X172.104 Y124.458 E3.69642
G1 X172.514 Y127.205 E3.7888
G1 X172.988 Y129.871 E3.87886
G1 X173.287 Y131.35 E3.92905
G1 X173.374 Y132.084 E3.95363
G1 X173.401 Y133.162 E3.9895
G1 X173.402 Y134.334 E4.02848
G1 X173.39 Y135.121 E4.05466
G1 X173.342 Y135.69 E4.07365
G1 X173.2 Y136.35 E4.0961
G1 X172.887 Y137.214 E4.12667
G1 X172.607 Y137.709 E4.14558
G1 X172.268 Y138.185 E4.16502
G1 X171.728 Y138.765 E4.19138
G1 X171.23 Y139.151 E4.21233
G1 X170.736 Y139.461 E4.23173
G1 X169.981 Y139.808 E4.25937
G1 X169.242 Y139.996 E4.28473
G1 X168.52 Y140.083 E4.30892
G1 X167.339 Y140.105 E4.34821
G1 X165.774 Y140.095 E4.40026
G1 X164.85 Y140.023 E4.43108
G1 X164.355 Y139.936 E4.4478
G1 X161.894 Y139.459 E4.53118
G1 X159.211 Y139.018 E4.62161
G1 X156.523 Y138.652 E4.71184
G1 X153.787 Y138.361 E4.80335
G1 X151.088 Y138.148 E4.8934
G1 X148.33 Y138.01 E4.98525
G1 X145.634 Y137.952 E5.07494
G1 X142.905 Y137.97 E5.16571
G1 X140.177 Y138.065 E5.25649
G1 X137.445 Y138.238 E5.34754
G1 X134.732 Y138.487 E5.43816
G1 X132.054 Y138.809 E5.52787
G1 X129.314 Y139.218 E5.62001
G1 X126.665 Y139.69 E5.70951
G1 X125.032 Y140.017 E5.7649
G1 X124.388 Y140.086 E5.78644
G1 X123.317 Y140.105 E5.82207
G1 X122.163 Y140.104 E5.86045
G1 X121.387 Y140.091 E5.88626
G1 X120.819 Y140.046 E5.90521
G1 X118.204 Y139.708 E5.99291
G1 X115.494 Y139.435 E6.0835
G1 X112.764 Y139.238 E6.17454
G1 X109.998 Y139.117 E6.26663
G1 X108.094 Y139.078 E6.32997
G1 X107.56 Y139.028 E6.3478
G1 X107.04 Y138.898 E6.36563
G1 X106.544 Y138.693 E6.38348
G1 X106.085 Y138.416 E6.40131
G1 X105.672 Y138.074 E6.41915
G1 X105.314 Y137.675 E6.43698
G1 X105.02 Y137.226 E6.45483
G1 X104.795 Y136.74 E6.47264
G1 X104.645 Y136.225 E6.49048
G1 X104.569 Y135.586 E6.51188
G1 X104.557 Y135.142 E6.52666
G1 X104.557 Y88.271 E8.08559
G0 F3600 X104.957 Y88.277
G1 F1800 X104.967 Y87.595 E8.10828
G1 X105.015 Y87.092 E8.12509
G1 X105.141 Y86.602 E8.14191
G1 X105.342 Y86.138 E8.15873
G1 X105.614 Y85.712 E8.17554
G1 X105.95 Y85.334 E8.19236
G1 X106.341 Y85.014 E8.20917
G1 X106.778 Y84.759 E8.226
G1 X107.249 Y84.576 E8.2428
G1 X107.743 Y84.47 E8.25961
G1 X108.1 Y84.443 E8.27152
G1 X111.446 Y84.373 E8.38283
G1 X114.2 Y84.236 E8.47454
G1 X116.915 Y84.024 E8.56512
G1 X120.061 Y83.682 E8.67037
G1 X120.947 Y83.571 E8.70007
G1 X121.283 Y83.547 E8.71127
G1 X122.485 Y83.525 E8.75126
G1 X124.032 Y83.535 E8.80271
G1 X124.906 Y83.601 E8.83186
G1 X125.393 Y83.686 E8.84831
G1 X127.896 Y84.171 E8.9331
G1 X130.594 Y84.614 E9.02404
G1 X133.302 Y84.981 E9.11493
G1 X136.032 Y85.272 E9.20625
G1 X138.746 Y85.485 E9.29679
G1 X141.497 Y85.622 E9.38841
G1 X144.213 Y85.68 E9.47876
G1 X146.967 Y85.661 E9.57036
G1 X149.684 Y85.566 E9.66078
G1 X152.429 Y85.392 E9.75227
G1 X155.177 Y85.139 E9.84405
G1 X157.867 Y84.816 E9.93416
G1 X160.597 Y84.408 E10.02597
G1 X163.284 Y83.928 E10.11676
G1 X164.826 Y83.618 E10.16907
G1 X165.361 Y83.552 E10.187
G1 X166.452 Y83.525 E10.2233
G1 X167.655 Y83.525 E10.26331
G1 X168.431 Y83.538 E10.28912
G1 X169.147 Y83.632 E10.31314
G1 X169.704 Y83.77 E10.33223
G1 X170.183 Y83.93 E10.34903
G1 X170.802 Y84.264 E10.37242
G1 X171.225 Y84.565 E10.38969
G1 X171.925 Y85.264 E10.42259
G1 X172.408 Y85.986 E10.45148
G1 X172.743 Y86.724 E10.47844
G1 X172.906 Y87.387 E10.50115
G1 X172.98 Y88.015 E10.52218
G1 X173.002 Y89.188 E10.5612
G1 X172.992 Y90.734 E10.61262
G1 X172.926 Y91.61 E10.64184
G1 X172.84 Y92.096 E10.65825
G1 X172.369 Y94.521 E10.74042
G1 X171.92 Y97.253 E10.8325
G1 X171.552 Y99.957 E10.92327
G1 X171.259 Y102.694 E11.01482
G1 X171.046 Y105.405 E11.10527
G1 X170.909 Y108.153 E11.19678
G1 X170.849 Y110.872 E11.28723
G1 X170.867 Y113.625 E11.3788
G1 X170.961 Y116.338 E11.46909
G1 X171.136 Y119.095 E11.56097
G1 X171.385 Y121.828 E11.65225
G1 X171.71 Y124.529 E11.74273
G1 X172.112 Y127.228 E11.83349
G1 X172.601 Y129.975 E11.92629
G1 X172.895 Y131.429 E11.97563
G1 X172.975 Y132.118 E11.9987
G1 X173.001 Y133.17 E12.0337
G1 X173.002 Y134.328 E12.07222
G1 X172.99 Y135.115 E12.0984
G1 X172.944 Y135.643 E12.11603
G1 X172.819 Y136.23 E12.13599
G1 X172.704 Y136.596 E12.14875
G1 X172.4 Y137.275 E12.17349
G1 X171.962 Y137.928 E12.19964
G1 X171.263 Y138.628 E12.23255
G1 X170.551 Y139.106 E12.26107
G1 X169.824 Y139.439 E12.28766
G1 X169.154 Y139.606 E12.31063
G1 X168.512 Y139.683 E12.33214
G1 X167.34 Y139.705 E12.37112
G1 X165.793 Y139.695 E12.42258
G1 X164.918 Y139.629 E12.45176
G1 X164.431 Y139.544 E12.46821
G1 X161.964 Y139.066 E12.55179
G1 X159.258 Y138.621 E12.643
G1 X156.549 Y138.253 E12.73393
G1 X153.825 Y137.962 E12.82504
G1 X151.106 Y137.748 E12.91576
G1 X148.359 Y137.611 E13.00723
G1 X145.64 Y137.552 E13.09769
G1 X142.889 Y137.57 E13.18919
G1 X140.171 Y137.665 E13.27965
G1 X137.422 Y137.839 E13.37126
G1 X134.681 Y138.09 E13.46281
G1 X131.983 Y138.415 E13.55319
G1 X129.256 Y138.822 E13.6449
G1 X126.599 Y139.295 E13.73466
G1 X124.953 Y139.625 E13.7905
G1 X124.381 Y139.686 E13.80963
G1 X123.317 Y139.705 E13.84502
G1 X122.169 Y139.705 E13.88321
G1 X121.393 Y139.692 E13.90902
G1 X120.871 Y139.65 E13.92644
G1 X118.228 Y139.308 E14.01508
G1 X115.526 Y139.037 E14.1054
G1 X112.774 Y138.838 E14.19717
G1 X110.024 Y138.717 E14.28872
G1 X108.102 Y138.678 E14.35266
G1 X107.599 Y138.628 E14.36947
G1 X107.11 Y138.499 E14.38629
G1 X106.648 Y138.295 E14.40309
G1 X106.223 Y138.021 E14.41991
G1 X105.847 Y137.683 E14.43673
G1 X105.529 Y137.29 E14.45354
G1 X105.277 Y136.852 E14.47035
G1 X105.096 Y136.38 E14.48716
G1 X104.993 Y135.885 E14.50398
G1 X104.958 Y135.237 E14.52556
G1 X104.957 Y88.277 E16.08746
G1 F2100 E15.28746
;MESH:helper b.stl
G0 F3600 X107.492 Y88.277
G0 X108.587 Y88.277
G1 F2100 E16.08746
G0 F3600 X108.357 Y87.834
;TYPE:WALL-OUTER
G1 F1800 X108.357 Y135.289 E17.66582
G1 X116.047 Y135.289 E17.92159
G1 X116.047 Y87.834 E19.49995
G1 X108.357 Y87.834 E19.75572
G0 F3600 X108.357 Y88.034
G0 X108.757 Y88.234
;TYPE:WALL-INNER
G1 F1800 X108.757 Y134.889 E21.30747
G1 X115.647 Y134.889 E21.53663
G1 X115.647 Y88.234 E23.08838
G1 X108.757 Y88.234 E23.31755
G0 F3600 X109.137 Y88.614
;TYPE:SKIN
G1 F1800 X109.137 Y134.509 E24.84402
G1 X115.267 Y134.509 E25.0479
G1 X115.267 Y88.614 E26.57438
G1 X109.137 Y88.614 E26.77826
G0 F3600 X115.066 Y89.045
G1 F1800 X114.835 Y88.814 E26.78913
G0 F3600 X114.269 Y88.814
G1 F1800 X115.066 Y89.61 E26.82659
G0 F3600 X115.066 Y90.176
G1 F1800 X113.704 Y88.814 E26.89066
G0 F3600 X113.138 Y88.814
G1 F1800 X115.066 Y90.742 E26.98134
G0 F3600 X115.066 Y91.307
G1 F1800 X112.572 Y88.814 E27.09863
G0 F3600 X112.007 Y88.814
G1 F1800 X115.066 Y91.873 E27.24252
G0 F3600 X115.066 Y92.439
G1 F1800 X111.441 Y88.814 E27.41303
G0 F3600 X110.875 Y88.814
G1 F1800 X115.066 Y93.005 E27.61016
G0 F3600 X115.066 Y93.57
G1 F1800 X110.31 Y88.814 E27.83387
G0 F3600 X109.744 Y88.814
G1 F1800 X115.066 Y94.136 E28.0842
G0 F3600 X115.066 Y94.702
G1 F1800 X109.335 Y88.971 E28.35376
G0 F3600 X109.335 Y89.536
G1 F1800 X115.066 Y95.267 E28.62333
G0 F3600 X115.066 Y95.833
G1 F1800 X109.335 Y90.102 E28.8929
G0 F3600 X109.335 Y90.668
G1 F1800 X115.066 Y96.399 E29.16247
G0 F3600 X115.066 Y96.964
G1 F1800 X109.335 Y91.233 E29.43204
G0 F3600 X109.335 Y91.799
G1 F1800 X115.066 Y97.53 E29.70161
G0 F3600 X115.066 Y98.096
G1 F1800 X109.335 Y92.365 E29.97118
G0 F3600 X109.335 Y92.93
G1 F1800 X115.066 Y98.661 E30.24075
G0 F3600 X115.066 Y99.227
G1 F1800 X109.335 Y93.496 E30.51031
G0 F3600 X109.335 Y94.062
G1 F1800 X115.066 Y99.793 E30.77988
G0 F3600 X115.066 Y100.358
G1 F1800 X109.335 Y94.627 E31.04945
G0 F3600 X109.335 Y95.193
G1 F1800 X115.066 Y100.924 E31.31902
G0 F3600 X115.066 Y101.49
G1 F1800 X109.335 Y95.759 E31.58859
G0 F3600 X109.335 Y96.324
G1 F1800 X115.066 Y102.056 E31.85818
G0 F3600 X115.066 Y102.621
G1 F1800 X109.335 Y96.89 E32.12775
G0 F3600 X109.335 Y97.456
G1 F1800 X115.066 Y103.187 E32.39732
G0 F3600 X115.066 Y103.753
G1 F1800 X109.335 Y98.021 E32.66691
G0 F3600 X109.335 Y98.587
G1 F1800 X115.066 Y104.318 E32.93648
G0 F3600 X115.066 Y104.884
G1 F1800 X109.335 Y99.153 E33.20605
G0 F3600 X109.335 Y99.719
G1 F1800 X115.066 Y105.45 E33.47562
G0 F3600 X115.066 Y106.015
G1 F1800 X109.335 Y100.284 E33.74518
G0 F3600 X109.335 Y100.85
G1 F1800 X115.066 Y106.581 E34.01475
G0 F3600 X115.066 Y107.147
G1 F1800 X109.335 Y101.416 E34.28432
G0 F3600 X109.335 Y101.981
G1 F1800 X115.066 Y107.712 E34.55389
G0 F3600 X115.066 Y108.278
G1 F1800 X109.335 Y102.547 E34.82346
G0 F3600 X109.335 Y103.113
G1 F1800 X115.066 Y108.844 E35.09303
G0 F3600 X115.066 Y109.409
G1 F1800 X109.335 Y103.678 E35.3626
G0 F3600 X109.335 Y104.244
G1 F1800 X115.066 Y109.975 E35.63217
G0 F3600 X115.066 Y110.541
G1 F1800 X109.335 Y104.81 E35.90173
G0 F3600 X109.335 Y105.375
G1 F1800 X115.066 Y111.106 E36.1713
G0 F3600 X115.066 Y111.672
G1 F1800 X109.335 Y105.941 E36.44087
G0 F3600 X109.335 Y106.507
G1 F1800 X115.066 Y112.238 E36.71044
G0 F3600 X115.066 Y112.804
G1 F1800 X109.335 Y107.072 E36.98003
G0 F3600 X109.335 Y107.638
G1 F1800 X115.066 Y113.369 E37.2496
G0 F3600 X115.066 Y113.935
G1 F1800 X109.335 Y108.204 E37.51917
G0 F3600 X109.335 Y108.769
G1 F1800 X115.066 Y114.501 E37.78876
G0 F3600 X115.066 Y115.066
G1 F1800 X109.335 Y109.335 E38.05833
G0 F3600 X109.335 Y109.901
G1 F1800 X115.066 Y115.632 E38.3279
G0 F3600 X115.066 Y116.198
G1 F1800 X109.335 Y110.467 E38.59747
G0 F3600 X109.335 Y111.032
G1 F1800 X115.066 Y116.763 E38.86704
G0 F3600 X115.066 Y117.329
G1 F1800 X109.336 Y111.599 E39.13656
G0 F3600 X109.336 Y112.164
G1 F1800 X115.066 Y117.895 E39.4061
G0 F3600 X115.066 Y118.46
G1 F1800 X109.336 Y112.73 E39.67562
G0 F3600 X109.336 Y113.296
G1 F1800 X115.066 Y119.026 E39.94515
G0 F3600 X115.066 Y119.592
G1 F1800 X109.336 Y113.861 E40.21469
G0 F3600 X109.336 Y114.427
G1 F1800 X115.066 Y120.157 E40.48421
G0 F3600 X115.066 Y120.723
G1 F1800 X109.336 Y114.993 E40.75374
G0 F3600 X109.336 Y115.558
G1 F1800 X115.066 Y121.289 E41.02328
G0 F3600 X115.066 Y121.855
G1 F1800 X109.336 Y116.124 E41.29283
G0 F3600 X109.336 Y116.69
G1 F1800 X115.066 Y122.42 E41.56235
G0 F3600 X115.066 Y122.986
G1 F1800 X109.336 Y117.255 E41.83189
G0 F3600 X109.336 Y117.821
G1 F1800 X115.066 Y123.552 E42.10144
G0 F3600 X115.066 Y124.117
G1 F1800 X109.336 Y118.387 E42.37096
G0 F3600 X109.336 Y118.953
G1 F1800 X115.066 Y124.683 E42.64048
G0 F3600 X115.066 Y125.249
G1 F1800 X109.336 Y119.518 E42.91003
G0 F3600 X109.336 Y120.084
G1 F1800 X115.066 Y125.814 E43.17955
G0 F3600 X115.066 Y126.38
G1 F1800 X109.336 Y120.65 E43.44907
G0 F3600 X109.336 Y121.215
G1 F1800 X115.066 Y126.946 E43.71861
G0 F3600 X115.066 Y127.511
G1 F1800 X109.336 Y121.781 E43.98814
G0 F3600 X109.336 Y122.347
G1 F1800 X115.066 Y128.077 E44.25766
G0 F3600 X115.066 Y128.643
G1 F1800 X109.336 Y122.912 E44.5272
G0 F3600 X109.336 Y123.478
G1 F1800 X115.066 Y129.208 E44.79672
G0 F3600 X115.066 Y129.774
G1 F1800 X109.336 Y124.044 E45.06625
G0 F3600 X109.336 Y124.609
G1 F1800 X115.066 Y130.34 E45.33579
G0 F3600 X115.066 Y130.905
G1 F1800 X109.336 Y125.175 E45.60531
G0 F3600 X109.336 Y125.741
G1 F1800 X115.066 Y131.471 E45.87483
G0 F3600 X115.066 Y132.037
G1 F1800 X109.336 Y126.306 E46.14438
G0 F3600 X109.336 Y126.872
G1 F1800 X115.066 Y132.603 E46.41392
G0 F3600 X115.066 Y133.168
G1 F1800 X109.336 Y127.438 E46.68345
G0 F3600 X109.336 Y128.004
G1 F1800 X115.066 Y133.734 E46.95297
G0 F3600 X115.066 Y134.3
G1 F1800 X109.336 Y128.569 E47.22251
G0 F3600 X109.336 Y129.135
G1 F1800 X114.508 Y134.307 E47.46579
G0 F3600 X113.943 Y134.307
G1 F1800 X109.336 Y129.701 E47.68246
G0 F3600 X109.336 Y130.266
G1 F1800 X113.377 Y134.307 E47.87254
G0 F3600 X112.811 Y134.307
G1 F1800 X109.336 Y130.832 E48.03599
G0 F3600 X109.336 Y131.398
G1 F1800 X112.246 Y134.307 E48.17285
G0 F3600 X111.68 Y134.307
G1 F1800 X109.336 Y131.963 E48.2831
G0 F3600 X109.336 Y132.529
G1 F1800 X111.114 Y134.307 E48.36673
G0 F3600 X110.549 Y134.307
G1 F1800 X109.336 Y133.095 E48.42377
G0 F3600 X109.336 Y133.66
G1 F1800 X109.983 Y134.307 E48.4542
G0 F3600 X109.417 Y134.307
G1 F1800 X109.336 Y134.226 E48.45801
G1 F2100 E47.65801
;MESH:helper a.stl
G0 F3600 X115.817 Y109.801
G0 X116.912 Y109.801
G0 X130.684 Y109.265
G0 X131.773 Y109.161
G0 X140.352 Y109.801
G1 F2100 E48.45801
G0 F3600 X140.742 Y109.512
;TYPE:WALL-OUTER
G1 F1800 X138.901 Y108.97 E48.52184
G1 X138.782 Y108.871 E48.52699
G1 X138.761 Y107.938 E48.55803
G1 X138.761 Y104.989 E48.65611
G1 X138.819 Y104.847 E48.66121
G1 X138.981 Y104.789 E48.66694
G1 X139.866 Y105.114 E48.69829
G1 X151.034 Y109.313 E49.09513
G1 X151.146 Y109.422 E49.10033
G1 X151.162 Y110.631 E49.14054
G1 X151.161 Y112.492 E49.20244
G1 X151.161 Y113.561 E49.238
G1 X151.083 Y113.702 E49.24335
G1 X149.948 Y114.138 E49.28379
G1 X139.026 Y118.244 E49.67188
G1 X138.884 Y118.239 E49.67661
G1 X138.78 Y118.14 E49.68139
G1 X138.761 Y117.257 E49.71076
G1 X138.761 Y114.156 E49.8139
G1 X138.839 Y114.014 E49.81929
G1 X138.903 Y113.982 E49.82167
G1 X140.742 Y113.433 E49.8855
G1 X140.742 Y109.512 E50.01591
G0 F3600 X140.551 Y109.456
G0 X140.352 Y109.801
G0 X138.419 Y109.184
G0 X125.837 Y89.086
G0 X126.172 Y88.851
G1 F1800 X125.723 Y88.216 E50.04178
G1 X125.28 Y87.54 E50.06866
G1 X125.07 Y87.283 E50.0797
G1 X124.809 Y87.093 E50.09044
G1 X124.492 Y86.965 E50.10181
G1 X124.064 Y86.926 E50.1161
G1 X121.536 Y86.925 E50.20019
G1 X121.204 Y86.968 E50.21132
G1 X120.876 Y87.101 E50.22309
G1 X120.606 Y87.304 E50.23433
G1 X120.402 Y87.571 E50.2455
G1 X120.271 Y87.884 E50.25679
