;FLAVOR:Marlin
;TIME:5800
;Filament used: 5.49353m
;Layer height: 0.2
;MINX:87.323
;MINY:46.197
;MINZ:0.2
;MAXX:162.678
;MAXY:163.803
;MAXZ:12.8
;Generated with Cura_SteamEngine 5.0.0
M82 ;absolute extrusion mode
G21 ; set units to millimeters
G90 ; use absolute positioning
M82 ; absolute extrusion mode
M104 S200 ; set extruder temp
M140 S60 ; set bed temp
M190 S60 ; wait for bed temp
M109 S200 ; wait for extruder temp
G28 W ; home all without mesh bed level
G80 ; mesh bed leveling
G92 E0.0 ; reset extruder distance position
G1 Y-3.0 F1000.0 ; go outside print area
G1 X60.0 E9.0 F1000.0 ; intro line
G1 X100.0 E21.5 F1000.0 ; intro line
G92 E0.0 ; reset extruder distance position
G92 E0
G92 E0
G1 F2100 E-0.8
;LAYER_COUNT:64
;LAYER:0
M107
G0 F3600 X88.204 Y55.537 Z0.2
G0 X87.324 Y59.043
;TYPE:SKIRT
G1 F2100 E0
G1 F1800 X87.333 Y58.394 E0.02159
G1 X87.408 Y57.591 E0.04841
G1 X87.564 Y56.901 E0.07194
G1 X87.701 Y56.505 E0.08588
G1 X87.991 Y55.887 E0.10858
G1 X88.204 Y55.537 E0.12221
G1 X88.611 Y55.005 E0.14449
G1 X89.347 Y54.312 E0.17811
G1 X90.011 Y53.86 E0.20483
G1 X90.503 Y53.583 E0.22361
G1 X102.422 Y47.144 E0.67418
G1 X103.145 Y46.769 E0.70127
G1 X103.553 Y46.585 E0.71616
G1 X104.038 Y46.422 E0.73318
G1 X104.953 Y46.239 E0.76421
G1 X105.48 Y46.205 E0.78178
G1 X106.121 Y46.197 E0.8031
G1 X143.876 Y46.199 E2.05884
G1 X144.667 Y46.213 E2.08515
G1 X145.136 Y46.248 E2.10079
G1 X145.639 Y46.338 E2.11779
G1 X146.491 Y46.606 E2.14749
G1 X146.981 Y46.832 E2.16544
G1 X147.549 Y47.13 E2.18677
G1 X159.403 Y53.535 E2.63491
G1 X159.977 Y53.856 E2.65679
G1 X160.621 Y54.285 E2.68252
G1 X161.159 Y54.756 E2.70631
G1 X161.441 Y55.065 E2.72022
G1 X161.839 Y55.607 E2.74259
G1 X162.053 Y55.973 E2.75669
G1 X162.334 Y56.599 E2.77951
G1 X162.596 Y57.603 E2.81402
G1 X162.667 Y58.343 E2.83875
G1 X162.678 Y58.943 E2.85871
G1 X162.675 Y145.798 E5.74751
G1 X162.663 Y146.568 E5.77313
G1 X162.623 Y147.437 E5.80206
G1 X162.555 Y148.294 E5.83066
G1 X162.41 Y149.258 E5.86308
G1 X162.28 Y149.989 E5.88777
G1 X161.995 Y151.097 E5.92582
G1 X161.773 Y151.846 E5.95181
G1 X161.409 Y152.816 E5.98627
G1 X161.088 Y153.586 E6.01401
G1 X160.739 Y154.294 E6.04027
G1 X160.239 Y155.215 E6.07512
G1 X159.797 Y155.912 E6.10257
G1 X159.185 Y156.797 E6.13836
G1 X158.68 Y157.431 E6.16532
G1 X157.966 Y158.258 E6.20166
G1 X157.197 Y159.019 E6.23764
G1 X156.599 Y159.571 E6.26471
G1 X156.041 Y160.025 E6.28864
G1 X155.128 Y160.708 E6.32656
G1 X154.46 Y161.142 E6.35306
G1 X153.535 Y161.69 E6.38881
G1 X152.534 Y162.183 E6.42593
G1 X151.808 Y162.51 E6.45241
G1 X151.05 Y162.793 E6.47932
G1 X150.029 Y163.128 E6.51506
G1 X149.245 Y163.329 E6.54198
G1 X148.199 Y163.552 E6.57755
G1 X147.102 Y163.7 E6.61437
G1 X146.314 Y163.778 E6.64071
G1 X145.35 Y163.803 E6.67278
G1 X105.815 Y163.799 E7.98772
G1 X103.972 Y163.764 E8.04903
G1 X103.347 Y163.731 E8.06985
G1 X102.34 Y163.607 E8.10359
G1 X101.526 Y163.48 E8.13099
G1 X100.736 Y163.302 E8.15793
G1 X99.739 Y163.037 E8.19224
G1 X99.06 Y162.811 E8.21604
G1 X97.995 Y162.405 E8.25395
G1 X97.313 Y162.093 E8.27889
G1 X96.295 Y161.573 E8.31691
G1 X95.365 Y161.006 E8.35314
G1 X94.741 Y160.595 E8.37799
G1 X94.133 Y160.139 E8.40327
G1 X93.274 Y159.438 E8.44015
G1 X92.757 Y158.958 E8.46361
G1 X91.961 Y158.155 E8.50122
G1 X91.287 Y157.367 E8.53571
G1 X90.772 Y156.719 E8.56324
G1 X90.168 Y155.835 E8.59885
G1 X89.745 Y155.166 E8.62517
G1 X89.383 Y154.506 E8.65021
G1 X88.895 Y153.53 E8.6865
G1 X88.494 Y152.548 E8.72178
G1 X88.214 Y151.788 E8.74872
G1 X87.903 Y150.701 E8.78632
G1 X87.725 Y149.983 E8.81093
G1 X87.541 Y148.94 E8.84615
G1 X87.43 Y148.136 E8.87315
G1 X87.376 Y147.439 E8.8964
G1 X87.323 Y145.985 E8.94479
G1 X87.324 Y59.043 E11.8365
G1 F2100 E11.0365
;MESH:bottom_cover.stl
G0 F3600 X89.858 Y59.045
G0 X90.953 Y59.045
G0 X120.905 Y72.741
G1 F2100 E11.8365
G0 F3600 X121.312 Y72.695
;TYPE:WALL-OUTER
G1 F1800 X121.386 Y71.924 E11.86226
G1 X121.634 Y71.157 E11.88907
G1 X122.018 Y70.508 E11.91415
G1 X122.548 Y69.938 E11.94004
G1 X123.184 Y69.493 E11.96585
G1 X123.899 Y69.196 E11.99161
G1 X124.669 Y69.061 E12.01761
G1 X125.447 Y69.094 E12.04351
G1 X126.222 Y69.3 E12.07018
G1 X126.888 Y69.647 E12.09516
G1 X127.49 Y70.144 E12.12112
G1 X127.965 Y70.752 E12.14678
G1 X128.303 Y71.459 E12.17285
G1 X128.479 Y72.213 E12.1986
G1 X128.489 Y72.99 E12.22444
G1 X128.332 Y73.756 E12.25045
G1 X128.017 Y74.464 E12.27622
G1 X127.536 Y75.111 E12.30304
G1 X126.963 Y75.604 E12.32818
G1 X126.285 Y75.974 E12.35387
G1 X125.539 Y76.193 E12.37973
G1 X125.036 Y76.227 E12.3965
G1 X124.717 Y76.242 E12.40712
G1 X123.964 Y76.123 E12.43247
G1 X123.236 Y75.839 E12.45846
G1 X122.615 Y75.421 E12.48336
G1 X122.074 Y74.865 E12.50916
G1 X121.664 Y74.204 E12.53503
G1 X121.405 Y73.468 E12.56099
G1 X121.312 Y72.695 E12.58688
G0 F3600 X121.331 Y72.496
G0 X120.921 Y72.454
G0 X120.918 Y140.996
G0 X120.978 Y141.92
G0 X121.365 Y141.788
G1 F1800 X121.272 Y141.015 E12.61278
G1 X121.346 Y140.244 E12.63854
G1 X121.594 Y139.477 E12.66535
G1 X121.978 Y138.828 E12.69043
G1 X122.508 Y138.258 E12.71632
G1 X123.144 Y137.813 E12.74214
G1 X123.859 Y137.516 E12.76789
G1 X124.629 Y137.381 E12.79389
G1 X125.132 Y137.4 E12.81063
G1 X125.45 Y137.421 E12.82123
G1 X126.205 Y137.627 E12.84726
G1 X126.866 Y137.977 E12.87213
G1 X127.45 Y138.464 E12.89743
G1 X127.925 Y139.072 E12.92309
G1 X128.262 Y139.779 E12.94914
G1 X128.439 Y140.533 E12.9749
G1 X128.449 Y141.31 E13.00074
G1 X128.292 Y142.076 E13.02675
G1 X127.977 Y142.784 E13.05252
G1 X127.496 Y143.431 E13.07934
G1 X126.923 Y143.924 E13.10448
G1 X126.245 Y144.294 E13.13017
G1 X125.499 Y144.513 E13.15603
G1 X124.72 Y144.564 E13.18199
G1 X123.948 Y144.448 E13.20796
G1 X123.203 Y144.162 E13.2345
G1 X122.575 Y143.741 E13.25965
G1 X122.034 Y143.185 E13.28545
G1 X121.624 Y142.524 E13.31132
G1 X121.365 Y141.788 E13.33727
G0 F3600 X121.342 Y141.59
G0 X120.931 Y141.636
G0 X91.131 Y146.204
G0 X90.721 Y146.203
G1 F1800 X90.737 Y146.541 E13.34852
G1 X90.792 Y147.704 E13.38725
G1 X91.02 Y149.185 E13.43709
G1 X91.4 Y150.619 E13.48643
G1 X91.938 Y152.031 E13.53669
G1 X92.617 Y153.365 E13.58647
G1 X93.436 Y154.62 E13.63632
G1 X94.383 Y155.781 E13.68615
G1 X95.446 Y156.834 E13.73591
G1 X96.617 Y157.771 E13.78579
G1 X97.878 Y158.575 E13.83554
G1 X99.221 Y159.244 E13.88544
G1 X100.638 Y159.77 E13.93571
G1 X102.077 Y160.134 E13.98508
G1 X103.559 Y160.347 E14.03488
G1 X104.985 Y160.4 E14.08234
G1 X146.002 Y160.403 E15.44657
G1 X147.511 Y160.232 E15.49708
G1 X148.995 Y159.9 E15.54766
G1 X150.429 Y159.412 E15.59804
G1 X151.807 Y158.77 E15.6486
G1 X153.105 Y157.986 E15.69904
G1 X154.315 Y157.065 E15.74961
G1 X155.416 Y156.021 E15.80008
G1 X156.401 Y154.863 E15.85064
G1 X157.253 Y153.607 E15.90112
G1 X157.965 Y152.267 E15.95159
G1 X158.537 Y150.844 E16.0026
G1 X158.94 Y149.395 E16.05263
G1 X159.19 Y147.897 E16.10314
G1 X159.275 Y146.456 E16.15115
G1 X159.277 Y58.413 E19.07947
G1 X159.237 Y58.036 E19.09208
G1 X159.121 Y57.674 E19.10472
G1 X158.923 Y57.337 E19.11772
G1 X158.666 Y57.053 E19.13046
G1 X158.24 Y56.771 E19.14746
G1 X145.372 Y49.817 E19.63395
G1 X144.802 Y49.623 E19.65397
G1 X144.418 Y49.599 E19.66677
G1 X138.365 Y49.598 E19.86809
G1 X105.497 Y49.598 E20.96129
G1 X104.903 Y49.697 E20.98132
G1 X104.547 Y49.861 E20.99435
G1 X91.675 Y56.816 E21.48097
G1 X91.367 Y57.027 E21.49339
G1 X91.096 Y57.31 E21.50642
G1 X90.896 Y57.639 E21.51923
G1 X90.772 Y57.998 E21.53186
G1 X90.724 Y58.511 E21.549
G1 X90.721 Y146.203 E24.46565
G0 F3600 X90.73 Y146.403
G0 X91.121 Y146.193
;TYPE:WALL-INNER
G1 F1800 X91.137 Y146.522 E24.4766
G1 X91.19 Y147.664 E24.51463
G1 X91.412 Y149.103 E24.56305
G1 X91.781 Y150.496 E24.61098
G1 X92.304 Y151.869 E24.65985
G1 X92.964 Y153.165 E24.70822
G1 X93.76 Y154.384 E24.75665
G1 X94.679 Y155.512 E24.80504
G1 X95.712 Y156.535 E24.85339
G1 X96.85 Y157.445 E24.90186
G1 X98.075 Y158.227 E24.95019
G1 X99.38 Y158.876 E24.99867
G1 X100.757 Y159.388 E25.04753
G1 X102.155 Y159.741 E25.09549
G1 X103.595 Y159.948 E25.14388
G1 X104.993 Y160 E25.19041
G1 X145.98 Y160.003 E26.55364
G1 X147.445 Y159.837 E26.60268
G1 X148.887 Y159.514 E26.65183
G1 X150.28 Y159.04 E26.70077
G1 X151.619 Y158.416 E26.7499
G1 X152.88 Y157.655 E26.79889
G1 X154.055 Y156.76 E26.84801
G1 X155.125 Y155.745 E26.89707
G1 X156.082 Y154.621 E26.94617
G1 X156.91 Y153.4 E26.99523
G1 X157.602 Y152.098 E27.04428
G1 X158.157 Y150.716 E27.09381
G1 X158.549 Y149.308 E27.14242
G1 X158.792 Y147.852 E27.19152
G1 X158.875 Y146.444 E27.23843
G1 X158.877 Y58.435 E30.16562
G1 X158.801 Y57.985 E30.1808
G1 X158.599 Y57.575 E30.196
G1 X158.27 Y57.265 E30.21104
G1 X158.042 Y57.119 E30.22004
G1 X145.196 Y50.177 E30.7057
G1 X144.736 Y50.019 E30.72187
G1 X144.418 Y49.999 E30.73247
G1 X138.365 Y49.998 E30.93379
G1 X105.514 Y49.998 E32.02642
G1 X105.032 Y50.077 E32.04267
G1 X104.737 Y50.213 E32.05347
G1 X91.884 Y57.158 E32.53938
G1 X91.518 Y57.447 E32.55489
G1 X91.26 Y57.811 E32.56973
G1 X91.145 Y58.248 E32.58476
G1 X91.125 Y58.514 E32.59363
G1 X91.124 Y78.602 E33.26176
G1 X91.121 Y146.193 E35.50985
G0 F3600 X91.131 Y146.193
G0 X120.865 Y141.061
G0 X120.874 Y141.061
G1 F1800 X120.948 Y140.204 E35.53846
G1 X121.214 Y139.352 E35.56815
G1 X121.635 Y138.622 E35.59617
G1 X122.216 Y137.984 E35.62487
G1 X122.917 Y137.484 E35.65351
G1 X123.708 Y137.146 E35.68212
G1 X124.563 Y136.987 E35.71105
G1 X125.151 Y137 E35.73061
G1 X125.555 Y137.035 E35.7441
G1 X126.321 Y137.244 E35.77051
G1 X127.035 Y137.613 E35.79724
G1 X127.706 Y138.157 E35.82597
G1 X128.242 Y138.828 E35.85453
G1 X128.624 Y139.609 E35.88345
G1 X128.829 Y140.444 E35.91204
G1 X128.849 Y141.307 E35.94076
G1 X128.684 Y142.159 E35.96962
G1 X128.341 Y142.949 E35.99827
G1 X127.816 Y143.671 E36.02796
G1 X127.182 Y144.229 E36.05605
G1 X126.435 Y144.646 E36.0845
G1 X125.609 Y144.897 E36.11322
G1 X124.744 Y144.963 E36.14207
G1 X123.886 Y144.843 E36.17088
G1 X123.057 Y144.534 E36.20031
G1 X122.35 Y144.072 E36.2284
G1 X121.746 Y143.463 E36.25693
G1 X121.282 Y142.732 E36.28573
G1 X120.987 Y141.918 E36.31452
G1 X120.874 Y141.061 E36.34327
G0 F3600 X120.865 Y141.061
G0 X120.905 Y72.741
G0 X120.914 Y72.741
G1 F1800 X120.988 Y71.884 E36.37188
G1 X121.254 Y71.032 E36.40157
G1 X121.675 Y70.302 E36.4296
G1 X122.256 Y69.664 E36.4583
G1 X122.957 Y69.164 E36.48694
G1 X123.748 Y68.826 E36.51555
G1 X124.603 Y68.667 E36.54447
G1 X125.466 Y68.694 E36.57319
G1 X126.327 Y68.914 E36.60275
G1 X127.075 Y69.293 E36.63064
G1 X127.746 Y69.837 E36.65937
G1 X128.282 Y70.508 E36.68793
G1 X128.665 Y71.289 E36.71686
G1 X128.869 Y72.124 E36.74545
G1 X128.889 Y72.987 E36.77416
G1 X128.724 Y73.839 E36.80303
G1 X128.381 Y74.629 E36.83167
G1 X127.856 Y75.351 E36.86136
G1 X127.222 Y75.909 E36.88945
G1 X126.475 Y76.326 E36.91791
G1 X125.649 Y76.577 E36.94662
G1 X125.06 Y76.626 E36.96628
G1 X124.655 Y76.637 E36.97976
G1 X123.891 Y76.517 E37.00548
G1 X123.097 Y76.214 E37.03374
G1 X122.39 Y75.752 E37.06183
G1 X121.786 Y75.143 E37.09036
G1 X121.322 Y74.412 E37.11916
G1 X121.027 Y73.598 E37.14796
G1 X120.914 Y72.741 E37.17671
G0 F3600 X120.532 Y72.7
;TYPE:SKIN
G1 F1800 X120.609 Y71.844 E37.20529
G1 X120.967 Y70.748 E37.24364
G1 X121.449 Y69.971 E37.27405
G1 X122.107 Y69.293 E37.30548
G1 X122.891 Y68.769 E37.33684
G1 X123.768 Y68.426 E37.36816
G1 X124.71 Y68.281 E37.39986
G1 X125.655 Y68.339 E37.43135
G1 X126.593 Y68.611 E37.46384
G1 X127.392 Y69.05 E37.49416
G1 X128.112 Y69.67 E37.52576
G1 X128.674 Y70.424 E37.55704
G1 X129.065 Y71.289 E37.58861
G1 X129.261 Y72.211 E37.61996
G1 X129.252 Y73.156 E37.65139
G1 X129.042 Y74.082 E37.68297
G1 X128.64 Y74.937 E37.7144
G1 X128.039 Y75.709 E37.74694
G1 X127.331 Y76.293 E37.77746
G1 X126.498 Y76.725 E37.80867
G1 X125.598 Y76.972 E37.83971
G1 X124.635 Y77.015 E37.87178
G1 X123.699 Y76.854 E37.90336
G1 X122.801 Y76.486 E37.93564
G1 X122.044 Y75.953 E37.96644
G1 X121.404 Y75.27 E37.99757
G1 X120.924 Y74.452 E38.02911
G1 X120.635 Y73.594 E38.05922
G1 X120.532 Y72.7 E38.08916
G0 F3600 X120.495 Y140.932
G1 F1800 X120.606 Y139.997 E38.12047
G1 X120.926 Y139.07 E38.15309
G1 X121.411 Y138.29 E38.18364
G1 X122.068 Y137.613 E38.21502
G1 X122.851 Y137.089 E38.24635
G1 X123.732 Y136.746 E38.2778
G1 X124.671 Y136.601 E38.3094
G1 X125.615 Y136.66 E38.34086
G1 X126.552 Y136.93 E38.37329
G1 X127.351 Y137.37 E38.40363
G1 X128.071 Y137.991 E38.43525
G1 X128.634 Y138.743 E38.4665
G1 X129.014 Y139.563 E38.49656
G1 X129.215 Y140.443 E38.52658
G1 X129.229 Y141.307 E38.55532
G1 X128.999 Y142.409 E38.59276
G1 X128.6 Y143.256 E38.6239
G1 X128 Y144.029 E38.65645
G1 X127.29 Y144.614 E38.68705
G1 X126.456 Y145.047 E38.7183
G1 X125.541 Y145.293 E38.74982
G1 X124.594 Y145.335 E38.78134
G1 X123.674 Y145.182 E38.81236
G1 X122.759 Y144.805 E38.84528
G1 X122.009 Y144.278 E38.87577
G1 X121.363 Y143.588 E38.9072
G1 X120.882 Y142.772 E38.93871
G1 X120.589 Y141.873 E38.97016
G1 X120.495 Y140.932 E39.00161
G0 F3600 X91.501 Y146.183
G1 F1800 X91.516 Y146.508 E39.01243
G1 X91.57 Y147.624 E39.04959
G1 X91.785 Y149.024 E39.0967
G1 X92.141 Y150.365 E39.14285
G1 X92.653 Y151.713 E39.19081
G1 X93.293 Y152.972 E39.23778
G1 X94.067 Y154.158 E39.28489
G1 X94.962 Y155.254 E39.33195
G1 X95.965 Y156.248 E39.37892
G1 X97.073 Y157.135 E39.42612
G1 X98.262 Y157.893 E39.47302
G1 X99.533 Y158.526 E39.52025
G1 X100.885 Y159.029 E39.56823
G1 X102.231 Y159.368 E39.61439
G1 X103.631 Y159.569 E39.66144
G1 X105 Y159.62 E39.707
G1 X145.956 Y159.622 E41.0692
G1 X147.381 Y159.461 E41.1169
G1 X148.785 Y159.146 E41.16476
G1 X150.135 Y158.687 E41.21218
G1 X151.439 Y158.079 E41.26004
G1 X152.663 Y157.34 E41.30759
G1 X153.808 Y156.468 E41.35546
G1 X154.849 Y155.482 E41.40315
G1 X155.781 Y154.388 E41.45095
G1 X156.584 Y153.202 E41.49859
G1 X157.256 Y151.936 E41.54626
G1 X157.804 Y150.578 E41.59497
G1 X158.176 Y149.225 E41.64164
G1 X158.413 Y147.807 E41.68946
G1 X158.495 Y146.434 E41.7352
G1 X158.495 Y58.431 E44.66219
G1 X158.4 Y57.988 E44.67726
G1 X158.222 Y57.727 E44.68777
G1 X157.818 Y57.43 E44.70445
G1 X145.138 Y50.578 E45.18382
G1 X144.831 Y50.433 E45.19512
G1 X144.354 Y50.38 E45.21108
G1 X118.08 Y50.379 E46.08496
G1 X105.531 Y50.379 E46.50234
G1 X105.218 Y50.437 E46.51293
G1 X104.825 Y50.598 E46.52705
G1 X92.184 Y57.428 E47.00494
G1 X91.718 Y57.795 E47.02467
G1 X91.573 Y58.074 E47.03512
G1 X91.504 Y58.569 E47.05175
G1 X91.501 Y146.183 E49.9658
G0 F3600 X94.908 Y154.871
G1 F1800 X96.281 Y156.244 E50.03038
G1 X96.351 Y156.314
G0 F3600 X98.251 Y157.648
G1 F1800 X93.456 Y152.853 E50.25592
G1 X93.386 Y152.783
G0 F3600 X92.871 Y151.702
G1 F1800 X99.407 Y158.238 E50.56336
G1 X99.477 Y158.308
G0 F3600 X100.35 Y158.616
G1 F1800 X92.511 Y150.777 E50.93208
G1 X92.441 Y150.707
G0 F3600 X92.233 Y149.933
G1 F1800 X101.201 Y158.901 E51.35391
G0 F3600 X101.957 Y159.091
G1 F1800 X92.028 Y149.162 E51.82094
G0 F3600 X91.901 Y148.47
G1 F1800 X102.657 Y159.226 E52.32687
G0 F3600 X103.318 Y159.321
G1 F1800 X91.799 Y147.802 E52.86869
G0 F3600 X91.748 Y147.185
G1 F1800 X103.942 Y159.379 E53.44225
G0 F3600 X104.53 Y159.401
G1 F1800 X91.72 Y146.591 E54.0448
G0 F3600 X91.7 Y146.006
G1 F1800 X105.113 Y159.419 E54.6757
G0 F3600 X105.679 Y159.419
G1 F1800 X91.7 Y145.44 E55.33323
G0 F3600 X91.7 Y144.874
G1 F1800 X106.244 Y159.419 E56.01736
G0 F3600 X106.81 Y159.419
G1 F1800 X91.7 Y144.309 E56.72809
G0 F3600 X91.7 Y143.743
G1 F1800 X107.376 Y159.419 E57.46544
G0 F3600 X107.941 Y159.419
G1 F1800 X91.7 Y143.177 E58.22939
G0 F3600 X91.7 Y142.612
G1 F1800 X108.507 Y159.419 E59.01994
G0 F3600 X109.073 Y159.419
G1 F1800 X91.7 Y142.046 E59.83711
G0 F3600 X91.7 Y141.48
G1 F1800 X109.639 Y159.419 E60.68091
G0 F3600 X110.204 Y159.419
G1 F1800 X91.7 Y140.915 E61.55128
G0 F3600 X91.7 Y140.349
G1 F1800 X110.77 Y159.419 E62.44827
G0 F3600 X111.336 Y159.419
G1 F1800 X91.7 Y139.783 E63.37189
G0 F3600 X91.7 Y139.218
G1 F1800 X111.901 Y159.419 E64.32208
G0 F3600 X112.467 Y159.419
G1 F1800 X91.7 Y138.652 E65.2989
G0 F3600 X91.7 Y138.086
G1 F1800 X113.033 Y159.419 E66.30234
G0 F3600 X113.598 Y159.419
G1 F1800 X91.7 Y137.52 E67.33238
G0 F3600 X91.7 Y136.955
G1 F1800 X114.164 Y159.419 E68.38902
G0 F3600 X114.73 Y159.419
G1 F1800 X91.7 Y136.389 E69.47228
G0 F3600 X91.7 Y135.823
